;FLAVOR:Marlin
;TIME:2054
;Filament used: 0.902482m
;Layer height: 0.2
;MINX:93.01
;MINY:93.012
;MINZ:0.2
;MAXX:126.989
;MAXY:126.99
;MAXZ:25
;Generated with Cura_SteamEngine 4.13.1
M140 S63
M105
M190 S63
M104 S215
M105
M109 S215
M82 ;absolute extrusion mode
; Ender 3 Custom Start G-code
G92 E0 ; Reset Extruder
G28 ; Home all axes
G1 Z2.0 F3000 ; Move Z Axis up little to prevent scratching of Heat Bed
G1 X0.1 Y20 Z0.3 F5000.0 ; Move to start position
G1 X0.1 Y200.0 Z0.3 F1500.0 E15 ; Draw the first line
G1 X0.4 Y200.0 Z0.3 F5000.0 ; Move to side a little
G1 X0.4 Y20 Z0.3 F1500.0 E30 ; Draw the second line
G92 E0 ; Reset Extruder
G1 Z2.0 F3000 ; Move Z Axis up little to prevent scratching of Heat Bed
G1 X5 Y20 Z0.3 F5000.0 ; Move over to prevent blob squish
G92 E0
G92 E0
G1 F1500 E-6.5
;LAYER_COUNT:125
;LAYER:0
M107
G0 F6000 X97.913 Y98.061 Z0.2
;TYPE:SKIRT
G1 F1500 E0
G1 F1200 X98.327 Y97.656 E0.01926
G1 X98.456 Y97.536 E0.02512
G1 X98.699 Y97.316 E0.03603
G1 X98.925 Y97.118 E0.04602
G1 X99.199 Y96.886 E0.05796
G1 X99.691 Y96.497 E0.07882
G1 X99.969 Y96.29 E0.09035
G1 X100.292 Y96.059 E0.10356
G1 X100.45 Y95.95 E0.10994
G1 X100.852 Y95.685 E0.12596
G1 X101.088 Y95.537 E0.13522
G1 X101.352 Y95.376 E0.14551
G1 X101.493 Y95.293 E0.15095
G1 X101.983 Y95.022 E0.16957
G1 X102.278 Y94.868 E0.18064
G1 X102.668 Y94.673 E0.19514
G1 X103.176 Y94.442 E0.2137
G1 X103.544 Y94.286 E0.227
G1 X104.078 Y94.076 E0.24608
G1 X104.501 Y93.926 E0.26101
G1 X104.765 Y93.838 E0.27026
G1 X105.17 Y93.712 E0.28437
G1 X105.721 Y93.56 E0.30338
G1 X106.108 Y93.464 E0.31664
G1 X106.659 Y93.342 E0.33541
G1 X107.125 Y93.256 E0.35118
G1 X107.401 Y93.211 E0.36048
G1 X107.865 Y93.145 E0.37606
G1 X108.403 Y93.087 E0.39406
G1 X108.728 Y93.06 E0.40491
G1 X109.146 Y93.032 E0.41884
G1 X109.721 Y93.014 E0.43798
G1 X110.106 Y93.012 E0.45078
G1 X110.709 Y93.026 E0.47084
G1 X110.87 Y93.034 E0.47621
G1 X111.182 Y93.054 E0.4866
G1 X111.476 Y93.077 E0.49641
G1 X111.85 Y93.112 E0.50891
G1 X112.416 Y93.185 E0.52789
G1 X112.951 Y93.269 E0.5459
G1 X113.073 Y93.29 E0.55002
G1 X113.771 Y93.434 E0.57372
G1 X114.109 Y93.515 E0.58528
G1 X114.657 Y93.661 E0.60414
G1 X114.874 Y93.725 E0.61167
G1 X115.212 Y93.831 E0.62345
G1 X115.648 Y93.977 E0.63874
G1 X115.798 Y94.03 E0.64403
G1 X116.307 Y94.224 E0.66215
G1 X116.585 Y94.338 E0.67214
G1 X117.082 Y94.557 E0.69021
G1 X117.308 Y94.663 E0.69851
G1 X117.699 Y94.856 E0.71301
G1 X117.917 Y94.969 E0.72118
G1 X118.28 Y95.165 E0.7349
G1 X118.745 Y95.436 E0.7528
G1 X119.239 Y95.743 E0.77215
G1 X119.323 Y95.797 E0.77547
G1 X119.87 Y96.172 E0.79753
G1 X120.142 Y96.371 E0.80874
G1 X120.448 Y96.603 E0.82151
G1 X120.598 Y96.721 E0.82786
G1 X120.978 Y97.034 E0.84423
G1 X121.195 Y97.221 E0.85376
G1 X121.483 Y97.479 E0.86662
G1 X121.603 Y97.59 E0.87206
G1 X121.977 Y97.952 E0.88937
G1 X122.273 Y98.253 E0.90341
G1 X122.823 Y98.855 E0.93053
G1 X123.056 Y99.13 E0.94252
G1 X123.272 Y99.394 E0.95386
G1 X123.373 Y99.521 E0.95926
G1 X123.705 Y99.96 E0.97757
G1 X123.92 Y100.26 E0.98984
G1 X124.284 Y100.802 E1.01156
G1 X124.506 Y101.159 E1.02554
G1 X124.64 Y101.383 E1.03422
G1 X124.859 Y101.764 E1.04884
G1 X125.111 Y102.237 E1.06666
G1 X125.258 Y102.53 E1.07757
G1 X125.418 Y102.862 E1.08982
G1 X125.482 Y103.001 E1.09491
G1 X125.689 Y103.481 E1.1123
G1 X125.807 Y103.773 E1.12277
G1 X125.981 Y104.233 E1.13913
G1 X126.047 Y104.42 E1.14573
G1 X126.177 Y104.81 E1.1594
G1 X126.267 Y105.099 E1.16947
G1 X126.384 Y105.503 E1.18346
G1 X126.48 Y105.877 E1.1963
G1 X126.557 Y106.2 E1.20734
G1 X126.697 Y106.88 E1.23044
G1 X126.77 Y107.303 E1.24471
G1 X126.843 Y107.794 E1.26122
G1 X126.876 Y108.055 E1.26997
G1 X126.939 Y108.703 E1.29163
G1 X126.961 Y109.033 E1.30263
G1 X126.981 Y109.437 E1.31608
G1 X126.989 Y110.042 E1.3362
G1 X126.984 Y110.397 E1.34801
G1 X126.974 Y110.745 E1.35959
G1 X126.967 Y110.898 E1.36469
G1 X126.927 Y111.451 E1.38313
G1 X126.897 Y111.762 E1.39352
G1 X126.851 Y112.174 E1.40731
G1 X126.777 Y112.685 E1.42448
G1 X126.722 Y113.011 E1.43548
G1 X126.578 Y113.722 E1.45961
G1 X126.475 Y114.144 E1.47405
G1 X126.408 Y114.402 E1.48292
G1 X126.274 Y114.876 E1.4993
G1 X126.096 Y115.431 E1.51869
G1 X125.954 Y115.836 E1.53296
G1 X125.669 Y116.566 E1.55903
G1 X125.527 Y116.894 E1.57091
G1 X125.336 Y117.311 E1.58617
G1 X125.249 Y117.491 E1.59282
G1 X125.052 Y117.879 E1.60729
G1 X124.915 Y118.136 E1.61698
G1 X124.716 Y118.493 E1.63057
G1 X124.652 Y118.603 E1.63481
G1 X124.415 Y118.991 E1.64993
G1 X124.226 Y119.287 E1.66161
G1 X123.899 Y119.77 E1.68101
G1 X123.768 Y119.953 E1.68849
G1 X123.539 Y120.262 E1.70129
G1 X123.263 Y120.617 E1.71624
G1 X123.144 Y120.765 E1.72256
G1 X122.757 Y121.22 E1.74242
G1 X122.564 Y121.435 E1.75203
G1 X122.297 Y121.721 E1.76505
G1 X122.163 Y121.86 E1.77147
G1 X121.817 Y122.204 E1.7877
G1 X121.522 Y122.484 E1.80122
G1 X120.896 Y123.035 E1.82896
G1 X120.594 Y123.281 E1.84192
G1 X120.288 Y123.521 E1.85485
G1 X120.185 Y123.599 E1.85915
G1 X119.751 Y123.912 E1.87695
G1 X119.473 Y124.102 E1.88815
G1 X119.141 Y124.321 E1.90137
G1 X118.63 Y124.633 E1.92129
G1 X118.327 Y124.807 E1.93291
G1 X118.021 Y124.976 E1.94454
G1 X117.899 Y125.041 E1.94913
G1 X117.459 Y125.263 E1.96553
G1 X117.161 Y125.405 E1.9765
G1 X116.7 Y125.612 E1.99331
G1 X116.522 Y125.687 E1.99974
G1 X116.113 Y125.85 E2.01438
G1 X115.833 Y125.955 E2.02433
G1 X115.434 Y126.097 E2.03841
G1 X114.942 Y126.254 E2.05559
G1 X114.653 Y126.339 E2.06561
G1 X114.192 Y126.464 E2.0815
G1 X113.994 Y126.513 E2.08828
G1 X113.584 Y126.606 E2.10226
G1 X113.285 Y126.668 E2.11242
G1 X112.874 Y126.745 E2.12633
G1 X112.743 Y126.767 E2.13075
G1 X112.27 Y126.836 E2.14664
G1 X111.922 Y126.879 E2.15831
G1 X111.505 Y126.923 E2.17225
G1 X110.916 Y126.963 E2.19189
G1 X110.508 Y126.98 E2.20547
G1 X109.961 Y126.99 E2.22367
G1 X109.551 Y126.983 E2.23731
G1 X109.229 Y126.972 E2.24802
G1 X108.702 Y126.941 E2.26558
G1 X108.265 Y126.9 E2.28018
G1 X107.892 Y126.857 E2.29267
G1 X107.481 Y126.802 E2.30646
G1 X106.925 Y126.709 E2.32521
G1 X106.601 Y126.646 E2.33619
G1 X106.109 Y126.538 E2.35294
G1 X105.944 Y126.498 E2.35859
G1 X105.54 Y126.392 E2.37248
G1 X105.215 Y126.3 E2.38371
G1 X104.78 Y126.168 E2.39883
G1 X104.346 Y126.019 E2.41409
G1 X104.001 Y125.893 E2.42631
G1 X103.637 Y125.753 E2.43928
G1 X103.504 Y125.699 E2.44406
G1 X103.044 Y125.5 E2.46073
G1 X102.781 Y125.379 E2.47035
G1 X102.484 Y125.237 E2.4813
G1 X102.325 Y125.158 E2.48721
G1 X101.833 Y124.898 E2.50572
G1 X101.541 Y124.734 E2.51686
G1 X101.172 Y124.517 E2.53109
G1 X101.058 Y124.447 E2.53554
G1 X100.673 Y124.199 E2.55078
G1 X100.404 Y124.018 E2.56156
G1 X100.055 Y123.775 E2.5757
G1 X99.572 Y123.412 E2.5958
G1 X99.293 Y123.19 E2.60766
G1 X98.999 Y122.947 E2.62034
G1 X98.91 Y122.871 E2.62424
G1 X98.563 Y122.562 E2.63969
G1 X98.321 Y122.337 E2.65068
G1 X98.002 Y122.028 E2.66545
G1 X97.878 Y121.903 E2.67131
G1 X97.568 Y121.578 E2.68625
G1 X97.355 Y121.345 E2.69675
G1 X97.086 Y121.04 E2.71027
G1 X97.002 Y120.941 E2.71459
G1 X96.731 Y120.608 E2.72887
G1 X96.503 Y120.317 E2.74117
G1 X96.195 Y119.904 E2.7583
G1 X96.114 Y119.79 E2.76295
G1 X95.895 Y119.471 E2.77582
G1 X95.727 Y119.216 E2.78598
G1 X95.46 Y118.789 E2.80273
G1 X95.363 Y118.626 E2.80904
G1 X95.161 Y118.271 E2.82262
G1 X94.915 Y117.815 E2.83986
G1 X94.84 Y117.67 E2.84529
G1 X94.569 Y117.107 E2.86607
G1 X94.429 Y116.794 E2.87747
G1 X94.227 Y116.314 E2.89479
G1 X94.171 Y116.171 E2.8999
G1 X94.055 Y115.86 E2.91094
G1 X93.935 Y115.524 E2.92281
G1 X93.777 Y115.047 E2.93952
G1 X93.655 Y114.631 E2.95394
G1 X93.557 Y114.269 E2.96641
G1 X93.418 Y113.696 E2.98602
G1 X93.378 Y113.509 E2.99238
G1 X93.321 Y113.223 E3.00208
G1 X93.272 Y112.96 E3.01098
G1 X93.215 Y112.623 E3.02235
G1 X93.192 Y112.474 E3.02736
G1 X93.125 Y111.963 E3.04451
G1 X93.093 Y111.663 E3.05454
G1 X93.061 Y111.309 E3.06636
G1 X93.049 Y111.147 E3.07177
G1 X93.023 Y110.626 E3.08912
G1 X93.014 Y110.287 E3.10039
G1 X93.01 Y109.908 E3.113
G1 X93.011 Y109.782 E3.11719
G1 X93.027 Y109.272 E3.13416
G1 X93.047 Y108.904 E3.14642
G1 X93.077 Y108.487 E3.16033
G1 X93.139 Y107.92 E3.1793
G1 X93.186 Y107.572 E3.19098
G1 X93.239 Y107.221 E3.20278
G1 X93.259 Y107.102 E3.2068
G1 X93.356 Y106.599 E3.22383
G1 X93.446 Y106.183 E3.23799
G1 X93.608 Y105.531 E3.26034
G1 X93.709 Y105.18 E3.27248
G1 X93.789 Y104.917 E3.28163
G1 X93.895 Y104.587 E3.29316
G1 X93.935 Y104.469 E3.2973
G1 X94.091 Y104.039 E3.31251
G1 X94.218 Y103.71 E3.32424
G1 X94.414 Y103.236 E3.3413
G1 X94.477 Y103.093 E3.3465
G1 X94.659 Y102.7 E3.3609
G1 X94.808 Y102.395 E3.37219
G1 X95.008 Y102.005 E3.38677
G1 X95.281 Y101.516 E3.4054
G1 X95.507 Y101.135 E3.42013
G1 X95.991 Y100.39 E3.44968
G1 X96.253 Y100.02 E3.46476
G1 X96.588 Y99.571 E3.48339
G1 X96.824 Y99.277 E3.49593
G1 X97.013 Y99.049 E3.50578
G1 X97.307 Y98.707 E3.52078
G1 X97.675 Y98.307 E3.53886
G1 X97.913 Y98.061 E3.55025
G0 F6000 X98.201 Y98.34
G1 F1200 X98.599 Y97.949 E3.5688
G1 X98.728 Y97.829 E3.57466
G1 X98.963 Y97.617 E3.58519
G1 X99.369 Y97.264 E3.60308
G1 X99.455 Y97.192 E3.60681
G1 X99.929 Y96.818 E3.6269
G1 X100.207 Y96.611 E3.63842
G1 X100.519 Y96.388 E3.65118
G1 X100.677 Y96.279 E3.65756
G1 X101.064 Y96.024 E3.67298
G1 X101.3 Y95.876 E3.68224
G1 X101.555 Y95.721 E3.69217
G1 X101.696 Y95.638 E3.69761
G1 X102.168 Y95.376 E3.71557
G1 X102.463 Y95.222 E3.72663
G1 X102.842 Y95.033 E3.74072
G1 X103.332 Y94.811 E3.75861
G1 X103.7 Y94.655 E3.77191
G1 X104.215 Y94.452 E3.79032
G1 X104.628 Y94.306 E3.80489
G1 X104.892 Y94.218 E3.81414
G1 X105.286 Y94.094 E3.82788
G1 X105.817 Y93.948 E3.8462
G1 X106.204 Y93.852 E3.85946
G1 X106.735 Y93.734 E3.87755
G1 X106.874 Y93.707 E3.88226
G1 X107.189 Y93.651 E3.8929
G1 X107.465 Y93.606 E3.9022
G1 X107.775 Y93.56 E3.91263
G1 X107.918 Y93.541 E3.91742
G1 X108.436 Y93.485 E3.93475
G1 X108.761 Y93.458 E3.9456
G1 X109.169 Y93.432 E3.9592
G1 X109.723 Y93.414 E3.97763
G1 X110.108 Y93.412 E3.99044
G1 X110.689 Y93.425 E4.00977
G1 X111.151 Y93.452 E4.02516
G1 X111.445 Y93.475 E4.03497
G1 X111.809 Y93.51 E4.04713
G1 X112.354 Y93.58 E4.06541
G1 X112.883 Y93.664 E4.08322
G1 X113.005 Y93.685 E4.08734
G1 X113.677 Y93.823 E4.11016
G1 X114.015 Y93.904 E4.12172
G1 X114.544 Y94.045 E4.13993
G1 X114.761 Y94.109 E4.14745
G1 X115.087 Y94.211 E4.15881
G1 X115.514 Y94.355 E4.1738
G1 X115.664 Y94.408 E4.17909
G1 X116.155 Y94.595 E4.19657
G1 X116.433 Y94.709 E4.20656
G1 X116.912 Y94.919 E4.22395
G1 X117.138 Y95.025 E4.23226
G1 X117.515 Y95.211 E4.24624
G1 X117.733 Y95.324 E4.25441
G1 X118.087 Y95.515 E4.26779
G1 X118.535 Y95.776 E4.28503
G1 X118.853 Y95.972 E4.29745
G1 X119.107 Y96.134 E4.30747
G1 X119.634 Y96.495 E4.32872
G1 X119.906 Y96.694 E4.33993
G1 X120.201 Y96.918 E4.35225
G1 X120.351 Y97.036 E4.3586
G1 X120.717 Y97.337 E4.37436
G1 X120.934 Y97.524 E4.38389
G1 X121.212 Y97.773 E4.3963
G1 X121.332 Y97.884 E4.40174
G1 X121.692 Y98.233 E4.41841
G1 X121.988 Y98.534 E4.43245
G1 X122.517 Y99.114 E4.45856
G1 X122.75 Y99.389 E4.47055
G1 X122.959 Y99.643 E4.48149
G1 X123.06 Y99.77 E4.48689
G1 X123.38 Y100.193 E4.50453
G1 X123.595 Y100.493 E4.51681
G1 X123.946 Y101.015 E4.53773
G1 X124.163 Y101.364 E4.5514
G1 X124.297 Y101.588 E4.56008
G1 X124.511 Y101.961 E4.57438
G1 X124.753 Y102.417 E4.59155
G1 X124.9 Y102.71 E4.60245
G1 X125.054 Y103.03 E4.61427
G1 X125.118 Y103.169 E4.61936
G1 X125.318 Y103.63 E4.63607
G1 X125.436 Y103.922 E4.64654
G1 X125.604 Y104.366 E4.66233
G1 X125.67 Y104.553 E4.66893
G1 X125.795 Y104.929 E4.68211
G1 X125.885 Y105.218 E4.69217
G1 X125.998 Y105.609 E4.70571
G1 X126.091 Y105.97 E4.71811
G1 X126.168 Y106.293 E4.72915
G1 X126.303 Y106.948 E4.7514
G1 X126.376 Y107.371 E4.76568
G1 X126.446 Y107.844 E4.78158
G1 X126.479 Y108.105 E4.79033
G1 X126.54 Y108.73 E4.81121
G1 X126.562 Y109.06 E4.82222
G1 X126.581 Y109.453 E4.8353
G1 X126.589 Y110.036 E4.85469
G1 X126.584 Y110.391 E4.8665
G1 X126.574 Y110.726 E4.87765
G1 X126.567 Y110.879 E4.88274
G1 X126.529 Y111.413 E4.90055
G1 X126.499 Y111.724 E4.91094
G1 X126.453 Y112.126 E4.9244
G1 X126.382 Y112.618 E4.94093
G1 X126.327 Y112.944 E4.95193
G1 X126.188 Y113.629 E4.97518
G1 X126.088 Y114.043 E4.98934
G1 X126.021 Y114.301 E4.99821
G1 X125.936 Y114.61 E5.00887
G1 X125.891 Y114.764 E5.0142
G1 X125.719 Y115.298 E5.03286
G1 X125.577 Y115.703 E5.04714
G1 X125.302 Y116.407 E5.07228
G1 X125.16 Y116.735 E5.08416
G1 X124.976 Y117.137 E5.09887
G1 X124.889 Y117.317 E5.10552
G1 X124.699 Y117.69 E5.11944
G1 X124.562 Y117.947 E5.12913
G1 X124.37 Y118.292 E5.14226
G1 X124.306 Y118.402 E5.14649
G1 X124.078 Y118.776 E5.16106
G1 X123.889 Y119.072 E5.17274
G1 X123.574 Y119.537 E5.19142
G1 X123.443 Y119.72 E5.19891
G1 X123.222 Y120.018 E5.21125
G1 X122.951 Y120.366 E5.22592
G1 X122.832 Y120.514 E5.23223
G1 X122.459 Y120.953 E5.25139
G1 X122.266 Y121.168 E5.261
G1 X122.009 Y121.444 E5.27355
G1 X121.875 Y121.583 E5.27997
G1 X121.541 Y121.914 E5.29561
G1 X121.246 Y122.194 E5.30913
G1 X120.644 Y122.724 E5.33581
G1 X120.342 Y122.97 E5.34877
G1 X120.046 Y123.202 E5.36128
G1 X119.943 Y123.28 E5.36557
G1 X119.525 Y123.581 E5.3827
G1 X119.247 Y123.771 E5.3939
G1 X118.923 Y123.985 E5.40682
G1 X118.431 Y124.286 E5.426
G1 X118.128 Y124.46 E5.43762
G1 X117.833 Y124.623 E5.44883
G1 X117.711 Y124.688 E5.45343
G1 X117.287 Y124.902 E5.46923
G1 X116.989 Y125.044 E5.48021
G1 X116.545 Y125.243 E5.49639
G1 X116.367 Y125.318 E5.50281
G1 X115.973 Y125.475 E5.51692
G1 X115.693 Y125.58 E5.52687
G1 X115.303 Y125.719 E5.54064
G1 X114.829 Y125.87 E5.55718
G1 X114.54 Y125.955 E5.5672
G1 X114.095 Y126.076 E5.58254
G1 X113.897 Y126.125 E5.58933
G1 X113.503 Y126.214 E5.60276
G1 X113.204 Y126.276 E5.61292
G1 X112.808 Y126.351 E5.62632
G1 X112.677 Y126.373 E5.63074
G1 X112.221 Y126.439 E5.64606
G1 X111.873 Y126.482 E5.65773
G1 X111.467 Y126.525 E5.67131
G1 X110.899 Y126.564 E5.69024
G1 X110.491 Y126.581 E5.70382
G1 X109.964 Y126.59 E5.72136
G1 X109.565 Y126.583 E5.73463
G1 X109.243 Y126.572 E5.74534
G1 X108.732 Y126.542 E5.76237
G1 X108.311 Y126.502 E5.77643
G1 X107.938 Y126.459 E5.78892
G1 X107.538 Y126.406 E5.80234
G1 X107.002 Y126.316 E5.82042
G1 X106.678 Y126.253 E5.8314
G1 X106.204 Y126.15 E5.84753
G1 X106.039 Y126.11 E5.85318
G1 X105.649 Y126.007 E5.86659
G1 X105.324 Y125.915 E5.87783
G1 X104.901 Y125.787 E5.89253
G1 X104.484 Y125.644 E5.90719
G1 X104.139 Y125.518 E5.91941
G1 X103.787 Y125.382 E5.93196
G1 X103.654 Y125.328 E5.93673
G1 X103.212 Y125.137 E5.95275
G1 X102.949 Y125.016 E5.96238
G1 X102.662 Y124.879 E5.97295
G1 X102.503 Y124.8 E5.97886
G1 X102.029 Y124.549 E5.9967
G1 X101.737 Y124.385 E6.00784
G1 X101.381 Y124.176 E6.02157
G1 X101.267 Y124.106 E6.02602
G1 X100.897 Y123.868 E6.04065
G1 X100.628 Y123.687 E6.05143
G1 X100.286 Y123.448 E6.06531
G1 X99.821 Y123.099 E6.08465
G1 X99.542 Y122.877 E6.09651
G1 X99.17 Y122.567 E6.11261
G1 X98.835 Y122.269 E6.12752
G1 X98.593 Y122.044 E6.13851
G1 X98.286 Y121.746 E6.15274
G1 X98.162 Y121.621 E6.1586
G1 X97.863 Y121.308 E6.173
G1 X97.65 Y121.075 E6.1835
G1 X97.391 Y120.781 E6.19653
G1 X97.307 Y120.682 E6.20085
G1 X97.046 Y120.362 E6.21458
G1 X96.818 Y120.071 E6.22688
G1 X96.521 Y119.673 E6.24339
G1 X96.44 Y119.559 E6.24805
G1 X96.229 Y119.251 E6.26046
G1 X96.061 Y118.996 E6.27062
G1 X95.804 Y118.585 E6.28674
G1 X95.707 Y118.422 E6.29305
G1 X95.512 Y118.08 E6.30615
G1 X95.381 Y117.84 E6.31524
G1 X95.195 Y117.486 E6.32854
G1 X94.934 Y116.944 E6.34855
G1 X94.794 Y116.631 E6.35995
G1 X94.6 Y116.168 E6.37665
G1 X94.544 Y116.025 E6.38176
G1 X94.432 Y115.725 E6.39241
G1 X94.312 Y115.389 E6.40427
G1 X94.158 Y114.927 E6.42047
G1 X94.041 Y114.527 E6.43433
G1 X93.943 Y114.165 E6.44681
G1 X93.809 Y113.612 E6.46573
G1 X93.769 Y113.425 E6.47209
G1 X93.714 Y113.149 E6.48145
G1 X93.665 Y112.886 E6.49035
G1 X93.61 Y112.562 E6.50128
G1 X93.587 Y112.413 E6.5063
G1 X93.523 Y111.92 E6.52283
G1 X93.491 Y111.62 E6.53286
G1 X93.46 Y111.279 E6.54425
G1 X93.448 Y111.117 E6.54966
G1 X93.423 Y110.615 E6.56637
G1 X93.414 Y110.276 E6.57765
G1 X93.41 Y109.911 E6.58979
G1 X93.411 Y109.785 E6.59398
G1 X93.427 Y109.294 E6.61032
G1 X93.447 Y108.926 E6.62258
G1 X93.476 Y108.52 E6.63612
G1 X93.535 Y107.973 E6.65442
G1 X93.582 Y107.625 E6.6661
G1 X93.654 Y107.168 E6.68149
